X: 178
T: Aşkın Önce
C: Âmir Ateş
O: Turkey
F: http://compmusic.upf.edu/node/140
N: buselik--sarki--duyek--askin_once--amir_ates
N: makam= buselik
N: form= sarki
N: usul= duyek = 8/4
M: 8/4
L: 1/16
K: C    
Q: 1/4=120
%%MIDI tuningsystem comma53
G2 G4 G2 c2 c4 c2  | e8 z8  | d2 d4 d2 f2 f4 f2  | \
w:   |   |   | 
a12 a2 b2  | c'2 c'4 b2 a2 a4 a2  | 
w:   |   | 
e8 z8  | d2 c4 B2 e2 c4 B2  | A6 B2 A2 B2 G4  | \
w:   |   |   | 
G2 G4 G2 c2 c4 c2  | e8 z8  | 
w:   |   | 
d2 d4 d2 f2 f4 f2  | a12 a2 b2  | c'2 c'4 b2 a2 a4 a2  | \
w:   |   |   | 
e8 z8  | d2 c4 B2 e2 c4 B2  | 
w:   |   | 
A16  | G4 c4 B2 c4 z2  | B4 A2 B2 G4 z4  | \
w:   |   |   | 
B4 c4 B4 A4  | z2 G2 A2 B2 c4 z4  | 
w:   |   | 
d2 d2 d4 d4 c2 B2  | c2 B2 c2 d2 e4 z4  | \
w:   |   | 
f2 d4 z2 e4 c4  | d4 c2 B2 A4 z4  | 
w:   |   | 
G4 c4 B2 c4 z2  | B4 A2 B2 G4 z4  | B4 c4 B4 A4  | \
w:   |   |   | 
z2 G2 A2 B2 c4 z4  | d2 d2 d4 d4 c2 B2  | 
w:   |   | 
c2 B2 c2 d2 e4 z4  | f2 d4 z2 e4 c4  | \
w:   |   | 
d4 c2 B2 A4 z4  | G4 z4 c4 z4  | e8 G2 c2 e4  | 
w:   |   |   | 
d4 d2 a2 g2 f2 e4  | d4 c4 B2 A2 G4  | \
w:   |   | 
z2 B4 c2 B4 A4  | z2 ^G4 A2 B4 c2 B2  | 
w:   |   | 
B8 B8  | c2 B2 A2 c2 B8  | c2 B2 c2 d2 e4 z4  | \
w:   |   |   | 
B2 d2 c2 B2 e2 e6  | A8 A8  | 
w:   |   | 
G4 z4 c4 z4  | e8 G2 c2 e4  | d4 d2 a2 g2 f2 e4  | \
w:   |   |   | 
d4 c4 B2 A2 G4  | z2 B4 c2 B4 A4  | 
w:   |   | 
z2 ^G4 A2 B4 c2 B2  | B8 B8  | c2 B2 A2 c2 B8  | \
w:   |   |   | 
c2 B2 c2 d2 e4 z4  | B2 d2 c2 B2 e2 e6  | 
w:   |   | 
A6 e2 f2 ^g2 a4  | z4 a2 a2 a2 a6  | \
w:   |   | 
^g2 a2 b4 g4 z4  | e4 f4 e4 d4  | c2 B2 c2 d2 e8  | 
w:   |   |   | 
z2 d4 d2 d4 d4  | e2 d2 e4 c4 z4  | B4 c4 B4 A4  | \
w:   |   |   | 
^G2 A2 B2 c2 A8  | G4 z4 c4 z4  | 
w:   |   | 
e8 G2 c2 e4  | d4 d2 a2 g2 f2 e4  | d4 c4 B2 A2 G4  | \
w:   |   |   | 
z2 B4 c2 B4 A4  | z2 ^G4 A2 B4 c2 B2  | 
w:   |   | 
B8 B8  | c2 B2 A2 c2 B8  | c2 B2 c2 d2 e4 z4  | \
w:   |   |   | 
B2 d2 c2 B2 e2 e6  | A8 A8  | 
w:   |   | 
G4 z4 c4 z4  | e8 G2 c2 e4  | d4 d2 a2 g2 f2 e4  | \
w:   |   |   | 
d4 c4 B2 A2 G4  | z2 B4 c2 B4 A4  | 
w:   |   | 
z2 ^G4 A2 B4 c2 B2  | B8 B8  | c2 B2 A2 c2 B8  | \
w:   |   |   | 
c2 B2 c2 d2 e4 z4  | B2 d2 c2 B2 e2 e6  | 
w:   |   | 
A6 e2 f2 ^g2 a4  | z4 a2 a2 a2 a6  | \
w:   |   | 
^g2 a2 b4 g4 z4  | e4 f4 e4 d4  | c2 B2 c2 d2 e8  | 
w:   |   |   | 
z2 d4 d2 d4 d4  | e2 d2 e4 c4 z4  | B4 c4 B4 A4  | \
w:   |   |   | 
^G2 A2 B2 c2 A8  | A16  | |


